X:9
T: SCHLAUF MAN WAWERL
N: K0032
O: Europa, Mitteleuropa, Deutschland, Boehmen
R: Kinder -, Wiegen - Lied
M: 4/4
L: 1/8
K: G
 | d2d2B2G2 | c2c2A2z2
e2e2d2c2 | d2d2B2z2
d2d2B2G2 | c2c2A2z2
e2e2d2c2 | d2d2B2z2
B3AA2e2 | e3dG2
d2 | d3cF2c2 | B6z2
B3AA2e2 | e3dG2
d2 | d3cF2c2 | B6z2

